img/svg/markets.svg

<svg width="48" height="48" viewBox="0 0 48 48" fill="none" xmlns="http://www.w3.org/2000/svg">
<path d="M45.118 40H44.8V16.979C45.5479 16.3822 46.1519 15.6249 46.5674 14.763C46.9828 13.9011 47.199 12.9568 47.2 12C47.1999 11.8942 47.1788 11.7896 47.138 11.692L43.546 3.076C43.365 2.63894 43.0583 2.26541 42.665 2.00268C42.2716 1.73994 41.8091 1.5998 41.336 1.6H35.2V0.8C35.2 0.587827 35.1157 0.384344 34.9657 0.234315C34.8157 0.0842854 34.6122 0 34.4 0H13.6C13.3878 0 13.1843 0.0842854 13.0343 0.234315C12.8843 0.384344 12.8 0.587827 12.8 0.8V1.6H6.664C6.19079 1.59975 5.72816 1.73998 5.33473 2.00292C4.94129 2.26586 4.63477 2.63968 4.454 3.077L0.862 11.692C0.821179 11.7896 0.800106 11.8942 0.8 12C0.800747 12.9568 1.01687 13.9012 1.43233 14.7631C1.8478 15.625 2.45195 16.3824 3.2 16.979V40H2.882C2.11789 40.0008 1.3853 40.3047 0.844995 40.845C0.304688 41.3853 0.000794156 42.1179 0 42.882V46.459C0.000264906 46.8676 0.162705 47.2594 0.451641 47.5484C0.740577 47.8373 1.13238 47.9997 1.541 48H46.459C46.8676 47.9997 47.2594 47.8373 47.5484 47.5484C47.8373 47.2594 47.9997 46.8676 48 46.459V42.882C47.9992 42.1179 47.6953 41.3853 47.155 40.845C46.6147 40.3047 45.8821 40.0008 45.118 40ZM4.8 17.916C6.24812 18.5087 7.86368 18.5481 9.33895 18.0266C10.8142 17.5051 12.0461 16.4592 12.8 15.088C13.3512 16.091 14.1618 16.9276 15.1469 17.5103C16.132 18.0929 17.2555 18.4003 18.4 18.4003C19.5445 18.4003 20.668 18.0929 21.6531 17.5103C22.6382 16.9276 23.4488 16.091 24 15.088C24.5508 16.0916 25.3612 16.9287 26.3463 17.5118C27.3315 18.0948 28.4552 18.4025 29.6 18.4025C30.7448 18.4025 31.8685 18.0948 32.8537 17.5118C33.8388 16.9287 34.6492 16.0916 35.2 15.088C35.9491 16.4638 37.1807 17.5139 38.6576 18.0362C40.1346 18.5585 41.7525 18.516 43.2 17.917V20H4.8V17.916ZM33.775 9.6L34.4 12.1C34.3858 12.8582 34.1915 13.6022 33.8332 14.2706C33.4748 14.939 32.9627 15.5125 32.339 15.944C30.747 17.071 28.461 17.075 26.856 15.944C26.2193 15.5025 25.6995 14.9128 25.3413 14.2257C24.9832 13.5386 24.7974 12.7748 24.8 12V9.6H33.775ZM23.2 12C23.2008 12.7744 23.0136 13.5375 22.6544 14.2236C22.2952 14.9097 21.7749 15.4984 21.138 15.939C19.546 17.066 17.26 17.07 15.655 15.939C15.0329 15.5076 14.5221 14.9346 14.1649 14.2671C13.8076 13.5997 13.614 12.8569 13.6 12.1L14.225 9.6H23.2V12ZM41.336 3.2C41.4929 3.20175 41.646 3.24923 41.7763 3.33661C41.9067 3.424 42.0088 3.5475 42.07 3.692L45.6 12.154C45.5763 12.902 45.3776 13.634 45.0199 14.2914C44.6621 14.9487 44.1553 15.513 43.54 15.939C41.948 17.066 39.662 17.07 38.057 15.939C37.4208 15.498 36.9012 14.9092 36.5429 14.2231C36.1846 13.5369 35.9983 12.7741 36 12C36 11.9346 35.992 11.8694 35.976 11.806L35.2 8.7V3.2H41.336ZM14.4 1.6H33.6V8H14.4V1.6ZM2.4 12.154L5.93 3.693C5.99099 3.54824 6.09296 3.42445 6.22336 3.33687C6.35377 3.24928 6.50692 3.20171 6.664 3.2H12.8V8.7L12.024 11.8C12.0075 11.8654 11.9995 11.9326 12 12C12.0008 12.7744 11.8136 13.5375 11.4544 14.2236C11.0952 14.9097 10.5749 15.4984 9.938 15.939C8.346 17.066 6.06 17.07 4.455 15.939C3.84036 15.5127 3.33427 14.9482 2.97737 14.2909C2.62047 13.6335 2.42272 12.9016 2.4 12.154ZM4.8 21.6H43.2V40H36V24C36 23.7878 35.9157 23.5843 35.7657 23.4343C35.6157 23.2843 35.4122 23.2 35.2 23.2H12.8C12.5878 23.2 12.3843 23.2843 12.2343 23.4343C12.0843 23.5843 12 23.7878 12 24V40H4.8V21.6ZM13.6 40V24.8H23.2V32H21.6C21.3878 32 21.1843 32.0843 21.0343 32.2343C20.8843 32.3843 20.8 32.5878 20.8 32.8C20.8 33.0122 20.8843 33.2157 21.0343 33.3657C21.1843 33.5157 21.3878 33.6 21.6 33.6H23.2V40H13.6ZM24.8 33.6H26.4C26.6122 33.6 26.8157 33.5157 26.9657 33.3657C27.1157 33.2157 27.2 33.0122 27.2 32.8C27.2 32.5878 27.1157 32.3843 26.9657 32.2343C26.8157 32.0843 26.6122 32 26.4 32H24.8V24.8H34.4V40H24.8V33.6ZM46.4 46.4H1.6V42.882C1.60026 42.5421 1.73542 42.2161 1.97578 41.9758C2.21615 41.7354 2.54207 41.6003 2.882 41.6H45.118C45.4579 41.6003 45.7839 41.7354 46.0242 41.9758C46.2646 42.2161 46.3997 42.5421 46.4 42.882V46.4Z" fill="white"/>
<path d="M16.8 4.80001H31.2C31.4122 4.80001 31.6157 4.71573 31.7657 4.5657C31.9157 4.41567 32 4.21219 32 4.00001C32 3.78784 31.9157 3.58436 31.7657 3.43433C31.6157 3.2843 31.4122 3.20001 31.2 3.20001H16.8C16.5878 3.20001 16.3843 3.2843 16.2343 3.43433C16.0843 3.58436 16 3.78784 16 4.00001C16 4.21219 16.0843 4.41567 16.2343 4.5657C16.3843 4.71573 16.5878 4.80001 16.8 4.80001Z" fill="white"/>
</svg>

<svg width="48" height="48" viewBox="0 0 48 48" fill="none" xmlns="http://www.w3.org/2000/svg"><path d="M45.118 40H44.8V16.979A6.379 6.379 0 0047.2 12a.8.8 0 00-.062-.308l-3.592-8.616a2.391 2.391 0 00-2.21-1.476H35.2V.8a.8.8 0 00-.8-.8H13.6a.8.8 0 00-.8.8v.8H6.664a2.39 2.39 0 00-2.21 1.477L.862 11.692A.8.8 0 00.8 12a6.375 6.375 0 002.4 4.979V40h-.318A2.885 2.885 0 000 42.882v3.577A1.542 1.542 0 001.541 48h44.918A1.542 1.542 0 0048 46.459v-3.577A2.885 2.885 0 0045.118 40zM4.8 17.916a6.374 6.374 0 008-2.828 6.39 6.39 0 0011.2 0 6.388 6.388 0 0011.2 0 6.346 6.346 0 008 2.829V20H4.8v-2.084zM33.775 9.6l.625 2.5a4.784 4.784 0 01-2.061 3.844c-1.592 1.127-3.878 1.131-5.483 0A4.78 4.78 0 0124.8 12V9.6h8.975zM23.2 12a4.784 4.784 0 01-2.062 3.939c-1.592 1.127-3.878 1.131-5.483 0A4.778 4.778 0 0113.6 12.1l.625-2.5H23.2V12zm18.136-8.8a.807.807 0 01.734.492l3.53 8.462a4.79 4.79 0 01-2.06 3.785c-1.592 1.127-3.878 1.131-5.483 0A4.78 4.78 0 0136 12a.793.793 0 00-.024-.194L35.2 8.7V3.2h6.136zM14.4 1.6h19.2V8H14.4V1.6zm-12 10.554l3.53-8.461a.806.806 0 01.734-.493H12.8v5.5l-.776 3.1A.793.793 0 0012 12a4.784 4.784 0 01-2.062 3.939c-1.592 1.127-3.878 1.131-5.483 0A4.784 4.784 0 012.4 12.154zM4.8 21.6h38.4V40H36V24a.8.8 0 00-.8-.8H12.8a.8.8 0 00-.8.8v16H4.8V21.6zM13.6 40V24.8h9.6V32h-1.6a.8.8 0 100 1.6h1.6V40h-9.6zm11.2-6.4h1.6a.8.8 0 100-1.6h-1.6v-7.2h9.6V40h-9.6v-6.4zm21.6 12.8H1.6v-3.518A1.283 1.283 0 012.882 41.6h42.236a1.283 1.283 0 011.282 1.282V46.4z" fill="#fff"/><path d="M16.8 4.8h14.4a.8.8 0 100-1.6H16.8a.8.8 0 100 1.6z" fill="#fff"/></svg>
